X:470
T:La Rosina nel Rosal (Arrg.)
R:Xiraldilla
C:Tradicional
S:Msica Tradicional Asturiana, (C) Tello & Tito. Asturies, 2001.
S:http://pagina.de/MusTradAst <telloytito@asturies.org>
A:Asturies
G:Arrg.
Z:Nacho Fonseca
M:2/4
L:1/8
Q:1/4=120
K:Dm
|: "Dm"D3 F|"Dm"A3 A|"Dm"B3 G|"Dm"A4|"Gm"G3 E|"Dm"F3 D|"A"E3 ^C|"Dm"D2 D2 :|
|: "Gm"GG FE|"Dm"FF ED|"A"EE D^C|"Dm"D2 D2 :|
W:La Rosina nel rosal
W:ya se va esfoyando,
W:xardinera de mio vida
W:l'agua se la va llevando.
W:
